public/img/calma_white-logo.svg

<svg width="1646" height="253" viewBox="0 0 1646 253" fill="none" xmlns="http://www.w3.org/2000/svg">
<path d="M1055.88 252.999V0H1092.53V252.999H1055.88Z" fill="white"/>
<path fill-rule="evenodd" clip-rule="evenodd" d="M960.284 104.615C964.227 109.642 965.87 114.783 965.87 119.601V135.039C952.741 128.191 936.953 124.198 919.969 124.198C874.335 124.198 837.341 153.03 837.341 188.597L837.448 191.913C839.591 224.842 873.469 251.248 915.719 252.916L919.969 252.997C936.953 252.997 952.741 249.004 965.87 242.157V253H1002.52V191.438V185.814V122.565L1002.59 119.601C1002.59 103.724 996.172 89.0966 985.379 77.437C970.268 61.1121 946.586 50.6008 919.965 50.6008C889.335 50.6008 862.597 64.5185 848.326 85.1941L880.506 103.811C887.491 95.1234 900.341 87.4006 919.965 87.4006C937.196 87.4006 950.837 94.237 958.455 102.467L960.284 104.615ZM961.077 177.088C964.758 181.464 965.874 185.441 965.874 188.597C965.874 191.754 964.758 195.731 961.077 200.106L959.338 202.011C951.92 209.491 938.007 216.197 919.969 216.197C885.493 216.197 874.064 195.769 874.064 188.597C874.064 181.425 885.493 160.997 919.969 160.997C938.007 160.997 951.92 167.704 959.338 175.184L961.077 177.088Z" fill="white"/>
<path fill-rule="evenodd" clip-rule="evenodd" d="M1603.69 104.615C1607.63 109.642 1609.27 114.783 1609.27 119.601V135.039C1596.14 128.191 1580.36 124.198 1563.37 124.198C1517.74 124.198 1480.74 153.03 1480.74 188.597L1480.85 191.913C1482.99 224.842 1516.87 251.248 1559.12 252.916L1563.37 252.997C1580.36 252.997 1596.14 249.004 1609.27 242.157V253H1645.92V191.438V185.814V122.565L1646 119.601C1646 103.724 1639.57 89.0966 1628.78 77.437C1613.67 61.1121 1589.99 50.6008 1563.37 50.6008C1532.74 50.6008 1506 64.5185 1491.73 85.1941L1523.91 103.811C1530.89 95.1234 1543.74 87.4006 1563.37 87.4006C1580.6 87.4006 1594.24 94.237 1601.86 102.467L1603.69 104.615ZM1604.48 177.088C1608.16 181.464 1609.28 185.441 1609.28 188.597C1609.28 191.754 1608.16 195.731 1604.48 200.106L1602.74 202.011C1595.32 209.491 1581.41 216.197 1563.37 216.197C1528.9 216.197 1517.47 195.769 1517.47 188.597C1517.47 181.425 1528.9 160.997 1563.37 160.997C1581.41 160.997 1595.32 167.704 1602.74 175.184L1604.48 177.088Z" fill="white"/>
<path d="M1149.5 50.6008V119.601V253H1186.22V119.601C1186.22 107.814 1200.22 87.4006 1232.12 87.4006C1249.36 87.4006 1263 94.237 1270.61 102.467L1272.44 104.615C1276.39 109.642 1278.03 114.783 1278.03 119.601V253H1314.75V119.601C1314.75 107.814 1328.75 87.4006 1360.66 87.4006C1377.89 87.4006 1391.53 94.237 1399.15 102.467L1400.98 104.615C1404.92 109.642 1406.56 114.783 1406.56 119.601V253H1443.29V119.601C1443.29 103.724 1436.86 89.0966 1426.07 77.437C1410.96 61.1121 1387.28 50.6008 1360.66 50.6008C1334.7 50.6008 1311.54 60.595 1296.39 76.2266C1281.24 60.5944 1258.08 50.6008 1232.12 50.6008C1215.14 50.6008 1199.35 54.8808 1186.22 62.2199V50.6008H1149.5Z" fill="white"/>
<path d="M727.171 87.4006C683.534 87.4006 653.724 119.182 653.724 151.8C653.724 184.419 683.534 216.2 727.171 216.2C750.249 216.2 770.187 206.913 783.36 193.2L809.334 219.228C789.159 239.955 759.822 253 727.171 253C666.325 253 617 207.691 617 151.8C617 95.9094 666.325 50.6008 727.171 50.6008C759.823 50.6008 789.157 63.6469 809.332 84.3749L783.36 110.401C770.187 96.688 750.249 87.4006 727.171 87.4006Z" fill="white"/>
<path d="M505 142.847C499.448 142.847 493.171 142.912 485.834 145.434C478.949 147.8 470.132 152.71 460.696 163.812L459.781 164.905C445.183 182.631 431.601 194.391 417.854 201.577C403.717 208.968 390.73 210.829 378.75 210.829C366.771 210.829 353.784 208.968 339.646 201.578C326.329 194.617 313.166 183.364 299.084 166.552L297.719 164.907C287.939 153.031 278.773 147.878 271.666 145.436C265.246 143.229 259.637 142.904 254.616 142.856L252.5 142.849C246.948 142.849 240.671 142.914 233.334 145.436C226.449 147.802 217.632 152.712 208.196 163.814L207.281 164.907C192.683 182.633 179.101 194.392 165.354 201.578C151.216 208.968 138.229 210.829 126.25 210.829C114.271 210.829 101.284 208.969 87.1465 201.579C73.8287 194.618 60.6656 183.364 46.584 166.552L45.2188 164.907C35.4385 153.031 26.273 147.878 19.166 145.436C11.8289 142.914 5.55192 142.849 0 142.849V104.003C6.1019 104.003 17.9342 103.937 31.791 108.699C45.8781 113.54 60.9921 122.954 75.2051 140.213L76.377 141.624C88.4045 155.981 97.7616 163.295 105.142 167.152C112.37 170.931 118.806 171.983 126.25 171.983C133.693 171.983 140.129 170.931 147.357 167.152C154.976 163.17 164.701 155.505 177.295 140.212L177.962 139.409C191.98 122.661 206.842 113.464 220.709 108.698C234.566 103.936 246.398 104.002 252.5 104.002L255.05 104.009C261.592 104.061 272.166 104.532 284.291 108.698C298.378 113.54 313.492 122.953 327.705 140.212L328.877 141.624C340.904 155.981 350.262 163.294 357.642 167.151C364.87 170.93 371.306 171.982 378.75 171.982C386.193 171.982 392.629 170.93 399.857 167.151C407.476 163.169 417.201 155.504 429.795 140.211L430.462 139.407C444.48 122.659 459.342 113.462 473.209 108.696C487.066 103.934 498.898 104 505 104V142.847Z" fill="url(#paint0_linear_336_124)"/>
<defs>
<linearGradient id="paint0_linear_336_124" x1="0" y1="159.772" x2="505" y2="159.772" gradientUnits="userSpaceOnUse">
<stop stop-color="#FFB600"/>
<stop offset="0.331731" stop-color="#FFF200"/>
<stop offset="0.721154" stop-color="#9AEBA3"/>
<stop offset="1" stop-color="#00F4EE"/>
</linearGradient>
</defs>
</svg>

<svg xmlns="http://www.w3.org/2000/svg" width="1646" height="253" fill="none" viewBox="0 0 1646 253"><path fill="#fff" d="M1055.88 252.999V0h36.65v252.999z"/><path fill="#fff" fill-rule="evenodd" d="M960.284 104.615c3.943 5.027 5.586 10.168 5.586 14.986v15.438c-13.129-6.848-28.917-10.841-45.901-10.841-45.634 0-82.628 28.832-82.628 64.399l.107 3.316c2.143 32.929 36.021 59.335 78.271 61.003l4.25.081c16.984 0 32.772-3.993 45.901-10.84V253h36.65V122.565l.07-2.964c0-15.877-6.418-30.504-17.211-42.164-15.111-16.325-38.793-26.836-65.414-26.836-30.63 0-57.368 13.918-71.639 34.593l32.18 18.617c6.985-8.688 19.835-16.41 39.459-16.41 17.231 0 30.872 6.836 38.49 15.066zm.793 72.473c3.681 4.376 4.797 8.353 4.797 11.509s-1.116 7.134-4.797 11.509l-1.739 1.905c-7.418 7.48-21.331 14.186-39.369 14.186-34.476 0-45.905-20.428-45.905-27.6s11.429-27.6 45.905-27.6c18.038 0 31.951 6.707 39.369 14.187zm642.613-72.473c3.94 5.027 5.58 10.168 5.58 14.986v15.438c-13.13-6.848-28.91-10.841-45.9-10.841-45.63 0-82.63 28.832-82.63 64.399l.11 3.316c2.14 32.929 36.02 59.335 78.27 61.003l4.25.081c16.99 0 32.77-3.993 45.9-10.84V253h36.65V122.565l.08-2.964c0-15.877-6.43-30.504-17.22-42.164-15.11-16.325-38.79-26.836-65.41-26.836-30.63 0-57.37 13.918-71.64 34.593l32.18 18.617c6.98-8.688 19.83-16.41 39.46-16.41 17.23 0 30.87 6.836 38.49 15.066zm.79 72.473c3.68 4.376 4.8 8.353 4.8 11.509s-1.12 7.134-4.8 11.509l-1.74 1.905c-7.42 7.48-21.33 14.186-39.37 14.186-34.47 0-45.9-20.428-45.9-27.6s11.43-27.6 45.9-27.6c18.04 0 31.95 6.707 39.37 14.187z" clip-rule="evenodd"/><path fill="#fff" d="M1149.5 50.6V253h36.72V119.601c0-11.787 14-32.2 45.9-32.2 17.24 0 30.88 6.836 38.49 15.066l1.83 2.148c3.95 5.027 5.59 10.168 5.59 14.986V253h36.72V119.601c0-11.787 14-32.2 45.91-32.2 17.23 0 30.87 6.836 38.49 15.066l1.83 2.148c3.94 5.027 5.58 10.168 5.58 14.986V253h36.73V119.601c0-15.877-6.43-30.504-17.22-42.164-15.11-16.325-38.79-26.836-65.41-26.836-25.96 0-49.12 9.994-64.27 25.626-15.15-15.633-38.31-25.626-64.27-25.626-16.98 0-32.77 4.28-45.9 11.619V50.6zM727.171 87.4c-43.637 0-73.447 31.782-73.447 64.4s29.81 64.4 73.447 64.4c23.078 0 43.016-9.287 56.189-23l25.974 26.028C789.159 239.955 759.822 253 727.171 253 666.325 253 617 207.691 617 151.8c0-55.89 49.325-101.2 110.171-101.2 32.652 0 61.986 13.047 82.161 33.775L783.36 110.4c-13.173-13.713-33.111-23-56.189-23"/><path fill="url(#a)" d="M505 142.847c-5.552 0-11.829.065-19.166 2.587-6.885 2.366-15.702 7.276-25.138 18.378l-.915 1.093c-14.598 17.726-28.18 29.486-41.927 36.672-14.137 7.391-27.124 9.252-39.104 9.252-11.979 0-24.966-1.861-39.104-9.251-13.317-6.961-26.48-18.214-40.562-35.026l-1.365-1.645c-9.78-11.876-18.946-17.029-26.053-19.471-6.42-2.207-12.029-2.532-17.05-2.58l-2.116-.007c-5.552 0-11.829.065-19.166 2.587-6.885 2.366-15.702 7.276-25.138 18.378l-.915 1.093c-14.598 17.726-28.18 29.485-41.927 36.671-14.138 7.39-27.125 9.251-39.104 9.251s-24.966-1.86-39.103-9.25c-13.318-6.961-26.481-18.215-40.563-35.027l-1.365-1.645c-9.78-11.876-18.946-17.029-26.053-19.471-7.337-2.522-13.614-2.587-19.166-2.587v-38.846c6.102 0 17.934-.066 31.791 4.696 14.087 4.841 29.201 14.255 43.414 31.514l1.172 1.411c12.028 14.357 21.385 21.671 28.765 25.528 7.228 3.779 13.664 4.831 21.108 4.831 7.443 0 13.879-1.052 21.107-4.831 7.619-3.982 17.344-11.647 29.938-26.94l.667-.803c14.018-16.748 28.88-25.945 42.747-30.711 13.857-4.762 25.689-4.696 31.791-4.696l2.55.007c6.542.052 17.116.523 29.241 4.689 14.087 4.842 29.201 14.255 43.414 31.514l1.172 1.412c12.027 14.357 21.385 21.67 28.765 25.527 7.228 3.779 13.664 4.831 21.108 4.831 7.443 0 13.879-1.052 21.107-4.831 7.619-3.982 17.344-11.647 29.938-26.94l.667-.804c14.018-16.748 28.88-25.945 42.747-30.711C487.066 103.934 498.898 104 505 104z"/><defs><linearGradient id="a" x1="0" x2="505" y1="159.772" y2="159.772" gradientUnits="userSpaceOnUse"><stop stop-color="#ffb600"/><stop offset=".332" stop-color="#fff200"/><stop offset=".721" stop-color="#9aeba3"/><stop offset="1" stop-color="#00f4ee"/></linearGradient></defs></svg>
